!!!OTL: Xinjianchuanghua
!!!ARE: Asia, China,ÿHebei Changli
!! IV, 19
!!!SCT: C1912
!!!YEM: Copyright 1995, estate of Helmut Schaffrath.
**kern
*ICvox
*Ivox
*M4/4
*k[b-]
*F:
{8a
8a
8cc
8d
8.f
16g
8f
8g
=1
4a
8cc
8g
2a}
=2
{4a
8a
8ff
8dd
8dd
8cc
8dd
=3
4a
8g
8d
8.f
16g
8f
8g}
=4
{4a
8cc
8d
8.f
16g
8f
8g
=5
4a
8cc
8g
2a}
=6
{4a
8a
8ff
8dd
8dd
8cc
8dd
=7
4a
8g
8d
8.f
16g
8f
8g}
=8
{8.a
16g
8a
8cc
8dd
16dd
16ee
8dd
8cc
=9
8a
16a
16g
8a
8cc
8dd
16dd
16ee
8dd
8cc}
=10
{4a
8a
8g
4f
8f
8d
=11
8.g
16a
8g
8f
2d}
=12
{4.f
8g
4a
4a
=13
8a
8ee
8dd
16ee
16dd
8cc
8cc
8cc
8a}
=14
{4ff
8a
8g
2f}
=15
{4.cc
8a
8.cc
16a
8cc
8dd
=16
8a
16a
16a
8a
8g
8f
8d
8cc
8a}
=17
{8g
16a
16g
4f
8d
16d
16a
8g
8e
=18
8d
4d
8c
2d}
==
!!!AGN: Xiaodiao, Xiudenglong
!!!AMT: simple quadruple
!!!AIN: vox
!!!EED: Helmut Schaffrath
!!!EEV: 1.0
*-
